ultima-forms/img/star.svg

<svg width="144" height="139" viewBox="0 0 144 139" fill="none" xmlns="http://www.w3.org/2000/svg">
<g filter="url(#filter0_d)">
<path d="M53.413 45.4206L14 52.1064L71.9529 65.1189L53.413 45.4206Z" fill="url(#paint0_linear)"/>
<path d="M101.951 80.6841L129.906 52.1054L71.9531 65.118L101.951 80.6841Z" fill="url(#paint1_linear)"/>
<path d="M90.493 45.4195L71.9531 10V65.1178L90.493 45.4195Z" fill="url(#paint2_linear)"/>
<path d="M41.9544 80.6825L36.1375 120.23L71.9526 65.1163L41.9544 80.6825Z" fill="url(#paint3_linear)"/>
<path d="M71.9531 102.473L107.768 120.23L71.9531 65.1163V102.473Z" fill="url(#paint4_linear)"/>
<path d="M36.1375 120.23L71.9526 102.473V65.1163L36.1375 120.23Z" fill="url(#paint5_linear)"/>
<path d="M14 52.1054L41.9546 80.6841L71.9529 65.118L14 52.1054Z" fill="url(#paint6_linear)"/>
<path d="M71.9534 10L53.4136 45.4195L71.9534 65.1178V10Z" fill="url(#paint7_linear)"/>
<path d="M129.906 52.1064L90.493 45.4206L71.9531 65.1189L129.906 52.1064Z" fill="url(#paint8_linear)"/>
<path d="M71.9531 65.1163L107.768 120.23L101.951 80.6825L71.9531 65.1163Z" fill="url(#paint9_linear)"/>
</g>
<defs>
<filter id="filter0_d" x="0" y="0" width="143.906" height="138.23" filterUnits="userSpaceOnUse" color-interpolation-filters="sRGB">
<feFlood flood-opacity="0" result="BackgroundImageFix"/>
<feColorMatrix in="SourceAlpha" type="matrix" values="0 0 0 0 0 0 0 0 0 0 0 0 0 0 0 0 0 0 127 0" result="hardAlpha"/>
<feOffset dy="4"/>
<feGaussianBlur stdDeviation="7"/>
<feComposite in2="hardAlpha" operator="out"/>
<feColorMatrix type="matrix" values="0 0 0 0 0 0 0 0 0 0 0 0 0 0 0 0 0 0 0.15 0"/>
<feBlend mode="normal" in2="BackgroundImageFix" result="effect1_dropShadow"/>
<feBlend mode="normal" in="SourceGraphic" in2="effect1_dropShadow" result="shape"/>
</filter>
<linearGradient id="paint0_linear" x1="75.7979" y1="50.7305" x2="72.8532" y2="64.7987" gradientUnits="userSpaceOnUse">
<stop stop-color="#FFDF14"/>
<stop offset="1" stop-color="#FFF91D"/>
</linearGradient>
<linearGradient id="paint1_linear" x1="77.2348" y1="87.1798" x2="71.5093" y2="66.5681" gradientUnits="userSpaceOnUse">
<stop stop-color="#FFB809"/>
<stop offset="1" stop-color="#FFDA04"/>
</linearGradient>
<linearGradient id="paint2_linear" x1="89.9297" y1="65.9333" x2="71.9344" y2="65.9333" gradientUnits="userSpaceOnUse">
<stop stop-color="#FCE21A"/>
<stop offset="1" stop-color="#FAF525"/>
</linearGradient>
<linearGradient id="paint3_linear" x1="58.8809" y1="55.4205" x2="72.622" y2="64.5815" gradientUnits="userSpaceOnUse">
<stop stop-color="#FFBD0A"/>
<stop offset="1" stop-color="#FFDE0B"/>
</linearGradient>
<linearGradient id="paint4_linear" x1="54.05" y1="77.2091" x2="69.9176" y2="65.5948" gradientUnits="userSpaceOnUse">
<stop stop-color="#FFC101"/>
<stop offset="1" stop-color="#FFCB0B"/>
</linearGradient>
<linearGradient id="paint5_linear" x1="50.9269" y1="131.622" x2="34.7868" y2="120.28" gradientUnits="userSpaceOnUse">
<stop stop-color="#FFA904"/>
<stop offset="1" stop-color="#FFC914"/>
</linearGradient>
<linearGradient id="paint6_linear" x1="8.95732" y1="74.0134" x2="13.0467" y2="52.7475" gradientUnits="userSpaceOnUse">
<stop stop-color="#FFBD0A"/>
<stop offset="1" stop-color="#FFDE0B"/>
</linearGradient>
<linearGradient id="paint7_linear" x1="53.2867" y1="9.1858" x2="72.1019" y2="9.1858" gradientUnits="userSpaceOnUse">
<stop stop-color="#FFE40E"/>
<stop offset="1" stop-color="#FFFB17"/>
</linearGradient>
<linearGradient id="paint8_linear" x1="127.651" y1="37.6392" x2="130.759" y2="52.1981" gradientUnits="userSpaceOnUse">
<stop stop-color="#FFD70B"/>
<stop offset="1" stop-color="#FFF213"/>
</linearGradient>
<linearGradient id="paint9_linear" x1="120.007" y1="114.473" x2="105.939" y2="122.162" gradientUnits="userSpaceOnUse">
<stop stop-color="#FFB403"/>
<stop offset="1" stop-color="#FFD604"/>
</linearGradient>
</defs>
</svg>

<svg width="144" height="139" fill="none" xmlns="http://www.w3.org/2000/svg"><g filter="url(#filter0_d)"><path d="M53.413 45.42L14 52.107 71.953 65.12 53.413 45.42z" fill="url(#paint0_linear)"/><path d="M101.951 80.684l27.955-28.579-57.953 13.013 29.998 15.566z" fill="url(#paint1_linear)"/><path d="M90.493 45.42L71.953 10v55.118l18.54-19.698z" fill="url(#paint2_linear)"/><path d="M41.954 80.683l-5.816 39.547 35.815-55.114-29.999 15.567z" fill="url(#paint3_linear)"/><path d="M71.953 102.473l35.815 17.757-35.815-55.114v37.357z" fill="url(#paint4_linear)"/><path d="M36.138 120.23l35.815-17.757V65.116L36.137 120.23z" fill="url(#paint5_linear)"/><path d="M14 52.105l27.955 28.58 29.998-15.567L14 52.105z" fill="url(#paint6_linear)"/><path d="M71.953 10l-18.54 35.42 18.54 19.698V10z" fill="url(#paint7_linear)"/><path d="M129.906 52.106l-39.413-6.685-18.54 19.698 57.953-13.013z" fill="url(#paint8_linear)"/><path d="M71.953 65.116l35.815 55.114-5.817-39.547-29.998-15.567z" fill="url(#paint9_linear)"/></g><defs><filter id="filter0_d" x="0" y="0" width="143.906" height="138.23" filterUnits="userSpaceOnUse" color-interpolation-filters="sRGB"><feFlood flood-opacity="0" result="BackgroundImageFix"/><feColorMatrix in="SourceAlpha" values="0 0 0 0 0 0 0 0 0 0 0 0 0 0 0 0 0 0 127 0" result="hardAlpha"/><feOffset dy="4"/><feGaussianBlur stdDeviation="7"/><feComposite in2="hardAlpha" operator="out"/><feColorMatrix values="0 0 0 0 0 0 0 0 0 0 0 0 0 0 0 0 0 0 0.15 0"/><feBlend in2="BackgroundImageFix" result="effect1_dropShadow"/><feBlend in="SourceGraphic" in2="effect1_dropShadow" result="shape"/></filter><linearGradient id="paint0_linear" x1="75.798" y1="50.73" x2="72.853" y2="64.799" gradientUnits="userSpaceOnUse"><stop stop-color="#FFDF14"/><stop offset="1" stop-color="#FFF91D"/></linearGradient><linearGradient id="paint1_linear" x1="77.235" y1="87.18" x2="71.509" y2="66.568" gradientUnits="userSpaceOnUse"><stop stop-color="#FFB809"/><stop offset="1" stop-color="#FFDA04"/></linearGradient><linearGradient id="paint2_linear" x1="89.93" y1="65.933" x2="71.934" y2="65.933" gradientUnits="userSpaceOnUse"><stop stop-color="#FCE21A"/><stop offset="1" stop-color="#FAF525"/></linearGradient><linearGradient id="paint3_linear" x1="58.881" y1="55.42" x2="72.622" y2="64.582" gradientUnits="userSpaceOnUse"><stop stop-color="#FFBD0A"/><stop offset="1" stop-color="#FFDE0B"/></linearGradient><linearGradient id="paint4_linear" x1="54.05" y1="77.209" x2="69.918" y2="65.595" gradientUnits="userSpaceOnUse"><stop stop-color="#FFC101"/><stop offset="1" stop-color="#FFCB0B"/></linearGradient><linearGradient id="paint5_linear" x1="50.927" y1="131.622" x2="34.787" y2="120.28" gradientUnits="userSpaceOnUse"><stop stop-color="#FFA904"/><stop offset="1" stop-color="#FFC914"/></linearGradient><linearGradient id="paint6_linear" x1="8.957" y1="74.013" x2="13.047" y2="52.748" gradientUnits="userSpaceOnUse"><stop stop-color="#FFBD0A"/><stop offset="1" stop-color="#FFDE0B"/></linearGradient><linearGradient id="paint7_linear" x1="53.287" y1="9.186" x2="72.102" y2="9.186" gradientUnits="userSpaceOnUse"><stop stop-color="#FFE40E"/><stop offset="1" stop-color="#FFFB17"/></linearGradient><linearGradient id="paint8_linear" x1="127.651" y1="37.639" x2="130.759" y2="52.198" gradientUnits="userSpaceOnUse"><stop stop-color="#FFD70B"/><stop offset="1" stop-color="#FFF213"/></linearGradient><linearGradient id="paint9_linear" x1="120.007" y1="114.473" x2="105.939" y2="122.162" gradientUnits="userSpaceOnUse"><stop stop-color="#FFB403"/><stop offset="1" stop-color="#FFD604"/></linearGradient></defs></svg>
